static/assets/uswds/img/material-icons/fact_check.svg

<svg xmlns="http://www.w3.org/2000/svg" width="24" height="24" viewBox="0 0 24 24"><path fill-rule="evenodd" d="M20 3H4c-1.1 0-2 .9-2 2v14c0 1.1.9 2 2 2h16c1.1 0 2-.9 2-2V5c0-1.1-.9-2-2-2zM10 17H5v-2h5v2zm0-4H5v-2h5v2zm0-4H5V7h5v2zm4.82 6L12 12.16l1.41-1.41 1.41 1.42L17.99 9l1.42 1.42L14.82 15z"/></svg>

<svg xmlns="http://www.w3.org/2000/svg" enable-background="new 0 0 24 24" height="24" viewBox="0 0 24 24" width="24"><g><rect fill="none" height="24" width="24"/></g><g><g><path d="M20,3H4C2.9,3,2,3.9,2,5v14c0,1.1,0.9,2,2,2h16c1.1,0,2-0.9,2-2V5 C22,3.9,21.1,3,20,3z M10,17H5v-2h5V17z M10,13H5v-2h5V13z M10,9H5V7h5V9z M14.82,15L12,12.16l1.41-1.41l1.41,1.42L17.99,9 l1.42,1.42L14.82,15z" fill-rule="evenodd"/></g></g></svg>
